svgs/duotone/bold.svg

<svg xmlns="http://www.w3.org/2000/svg" viewBox="0 0 384 512"><!--! Font Awesome Pro 6.6.0 by @fontawesome - https://fontawesome.com License - https://fontawesome.com/license (Commercial License) Copyright 2024 Fonticons, Inc. --><defs><style>.fa-secondary{opacity:.4}</style></defs><path class="fa-secondary" d="M0 64C0 46.3 14.3 32 32 32l48 0 16 0 128 0c70.7 0 128 57.3 128 128c0 31.3-11.3 60.1-30 82.3c37.1 22.4 62 63.1 62 109.7c0 70.7-57.3 128-128 128L96 480l-16 0-48 0c-17.7 0-32-14.3-32-32s14.3-32 32-32l16 0 0-160L48 96 32 96C14.3 96 0 81.7 0 64zM224 224c35.3 0 64-28.7 64-64s-28.7-64-64-64L112 96l0 128 112 0zM112 288l0 128 144 0c35.3 0 64-28.7 64-64s-28.7-64-64-64l-32 0-112 0z"/><path class="fa-primary" d=""/></svg>

<svg xmlns="http://www.w3.org/2000/svg" viewBox="0 0 384 512"><!--! Font Awesome Pro 6.5.2 by @fontawesome - https://fontawesome.com License - https://fontawesome.com/license (Commercial License) Copyright 2024 Fonticons, Inc. --><defs><style>.fa-secondary{opacity:.4}</style></defs><path class="fa-secondary" d="M0 64C0 46.3 14.3 32 32 32H80 96 224c70.7 0 128 57.3 128 128c0 31.3-11.3 60.1-30 82.3c37.1 22.4 62 63.1 62 109.7c0 70.7-57.3 128-128 128H96 80 32c-17.7 0-32-14.3-32-32s14.3-32 32-32H48V256 96H32C14.3 96 0 81.7 0 64zM224 224c35.3 0 64-28.7 64-64s-28.7-64-64-64H112V224H224zM112 288V416H256c35.3 0 64-28.7 64-64s-28.7-64-64-64H224 112z"/><path class="fa-primary" d=""/></svg>
